packages/usa-icon/src/img/material-icons/book_online.svg

<svg xmlns="http://www.w3.org/2000/svg" height="24" viewBox="0 0 24 24" width="24"><path fill="none" d="M0 0h24v24H0z"/><path d="M17 1H7c-1.1 0-2 .9-2 2v18c0 1.1.9 2 2 2h10c1.1 0 2-.9 2-2V3c0-1.1-.9-2-2-2zM7 18V6h10v12H7zm9-7V9.14C16 8.51 15.55 8 15 8H9c-.55 0-1 .51-1 1.14v1.96c.55 0 1 .45 1 1s-.45 1-1 1v1.76c0 .63.45 1.14 1 1.14h6c.55 0 1-.51 1-1.14V13c-.55 0-1-.45-1-1s.45-1 1-1zm-3.5 3.5h-1v-1h1v1zm0-2h-1v-1h1v1zm0-2h-1v-1h1v1z"/></svg>

<svg xmlns="http://www.w3.org/2000/svg" enable-background="new 0 0 24 24" height="24" viewBox="0 0 24 24" width="24"><rect fill="none" height="24" width="24"/><g><path d="M17,1H7C5.9,1,5,1.9,5,3v18c0,1.1,0.9,2,2,2h10c1.1,0,2-0.9,2-2V3C19,1.9,18.1,1,17,1z M7,18V6h10v12H7z M16,11V9.14 C16,8.51,15.55,8,15,8H9C8.45,8,8,8.51,8,9.14l0,1.96c0.55,0,1,0.45,1,1c0,0.55-0.45,1-1,1l0,1.76C8,15.49,8.45,16,9,16h6 c0.55,0,1-0.51,1-1.14V13c-0.55,0-1-0.45-1-1C15,11.45,15.45,11,16,11z M12.5,14.5h-1v-1h1V14.5z M12.5,12.5h-1v-1h1V12.5z M12.5,10.5h-1v-1h1V10.5z"/></g></svg>
